img/facebook.svg

<svg clip-rule="evenodd" fill-rule="evenodd" stroke-linejoin="round" stroke-miterlimit="2" viewBox="0 0 51 100" xmlns="http://www.w3.org/2000/svg"><path d="m483 659.543c0 .386.154.757.427 1.03s.644.427 1.03.427h4.16c1.316 0 2.383 1.067 2.383 2.383v4.6h-6.543c-.386 0-.757.153-1.03.427-.273.273-.427.644-.427 1.03v16.206c0 1.155-.459 2.262-1.275 3.079-.817.816-1.924 1.275-3.079 1.275-2.696 0-5.646 0-5.646 0s0-15.647 0-20.56c0-.386-.154-.757-.427-1.03-.273-.274-.644-.427-1.03-.427h-1.16c-1.316 0-2.383-1.067-2.383-2.383 0-2.023 0-4.6 0-4.6h3.543c.805 0 1.457-.652 1.457-1.457 0-2.14 0-5.882 0-5.882 0-2.297.913-4.5 2.537-6.124s3.827-2.537 6.124-2.537h9.339v9h-5.937c-.547 0-1.072.217-1.459.604s-.604.912-.604 1.459z" fill="#3b5998" transform="matrix(2.20702 0 0 2.20702 -1032.8824 -1423.524536)"/></svg>

<?xml version="1.0" encoding="UTF-8" standalone="no"?>
<!DOCTYPE svg PUBLIC "-//W3C//DTD SVG 1.1//EN" "http://www.w3.org/Graphics/SVG/1.1/DTD/svg11.dtd">
<svg width="100%" height="100%" viewBox="0 0 51 100" version="1.1" xmlns="http://www.w3.org/2000/svg" xmlns:xlink="http://www.w3.org/1999/xlink" xml:space="preserve" xmlns:serif="http://www.serif.com/" style="fill-rule:evenodd;clip-rule:evenodd;stroke-linejoin:round;stroke-miterlimit:2;">
    <g transform="matrix(1,0,0,1,-24.0524,-0.424536)">
        <g id="Facebook" transform="matrix(2.20702,0,0,2.20702,-1008.83,-1423.1)">
            <path d="M483,659.543C483,659.929 483.154,660.3 483.427,660.573C483.7,660.846 484.071,661 484.457,661L488.617,661C489.933,661 491,662.067 491,663.383C491,665.406 491,667.983 491,667.983L484.457,667.983C484.071,667.983 483.7,668.136 483.427,668.41C483.154,668.683 483,669.054 483,669.44C483,672.69 483,680.638 483,685.646C483,686.801 482.541,687.908 481.725,688.725C480.908,689.541 479.801,690 478.646,690C475.95,690 473,690 473,690C473,690 473,674.353 473,669.44C473,669.054 472.846,668.683 472.573,668.41C472.3,668.136 471.929,667.983 471.543,667.983L470.383,667.983C469.067,667.983 468,666.916 468,665.6C468,663.577 468,661 468,661L471.543,661C472.348,661 473,660.348 473,659.543C473,657.403 473,653.661 473,653.661C473,651.364 473.913,649.161 475.537,647.537C477.161,645.913 479.364,645 481.661,645L491,645L491,654L485.063,654C484.516,654 483.991,654.217 483.604,654.604C483.217,654.991 483,655.516 483,656.063C483,657.181 483,658.536 483,659.543Z" style="fill:#3B5998;"/>
        </g>
    </g>
</svg>
